packages/core/src/svgs/tokens/branded/TORN.svg

<svg width="24" height="24" viewBox="0 0 24 24" fill="none" xmlns="http://www.w3.org/2000/svg">
<path fill-rule="evenodd" clip-rule="evenodd" d="M6.33523 7.04699C7.58992 5.33289 11.2499 2.26881 15.848 3.71997C20.4469 5.17171 21.8656 9.40925 21.9997 11.347C21.7197 9.90583 20.2938 6.88816 16.8322 6.34347C18.7085 7.71227 21.985 11.6275 20.0763 16.3375C18.1668 21.0468 14.2368 22.0721 12.5105 21.9962C13.9069 21.8856 16.8721 20.7221 17.5628 16.9462C16.6062 18.2909 13.8098 20.9097 10.2764 20.6256C5.85877 20.2704 2.55881 17.2763 2 13.114C2.22822 14.4339 3.56409 17.1798 7.07758 17.6057C5.66407 16.7351 2.9394 13.8858 3.34527 9.46045C3.85351 3.92879 9.00696 2.07587 11.2922 2C9.72231 2.24881 6.53347 3.60586 6.33523 7.04699ZM11.9999 15.5292C12.4634 15.5292 12.9222 15.438 13.3505 15.2606C13.7787 15.0832 14.1678 14.8232 14.4956 14.4954C14.8232 14.1678 15.0831 13.7787 15.2606 13.3505C15.4379 12.9222 15.5292 12.4634 15.5292 11.9999C15.5292 11.5364 15.4379 11.0774 15.2606 10.6492C15.0831 10.221 14.8232 9.83199 14.4956 9.50423C14.1678 9.1765 13.7787 8.91652 13.3505 8.73915C12.9222 8.56178 12.4634 8.47049 11.9999 8.47049C11.0638 8.47049 10.166 8.84234 9.50421 9.50423C8.84234 10.1661 8.47049 11.0638 8.47049 11.9999C8.47049 12.936 8.84234 13.8336 9.50421 14.4954C10.166 15.1574 11.0638 15.5292 11.9999 15.5292Z" fill="#92FFBE"/>
</svg>

<svg xmlns="http://www.w3.org/2000/svg" width="24" height="24" fill="none" viewBox="0 0 24 24">
    <path fill="#92FFBE" fill-rule="evenodd" d="M6.335 7.047C7.59 5.333 11.25 2.269 15.848 3.72c4.599 1.452 6.018 5.69 6.152 7.627-.28-1.441-1.706-4.459-5.168-5.004 1.877 1.37 5.153 5.284 3.244 9.994-1.91 4.71-5.84 5.735-7.565 5.66 1.396-.111 4.361-1.275 5.052-5.05-.957 1.344-3.753 3.963-7.287 3.679C5.86 20.27 2.56 17.276 2 13.114c.228 1.32 1.564 4.066 5.078 4.492-1.414-.87-4.139-3.72-3.733-8.146.509-5.53 5.662-7.384 7.947-7.46-1.57.249-4.759 1.606-4.957 5.047M12 15.529a3.529 3.529 0 1 0 0-7.057 3.529 3.529 0 0 0 0 7.057" clip-rule="evenodd"/>
</svg>
